svg/fluentui-system-icons/ic_fluent_new_24_regular.svg

<svg width="24" height="24" viewBox="0 0 24 24" fill="none" xmlns="http://www.w3.org/2000/svg">
<path d="M18.25 4C18.6642 4 19 4.33579 19 4.75V13.25C19 13.6642 18.6642 14 18.25 14C17.8358 14 17.5 13.6642 17.5 13.25V4.75C17.5 4.33579 17.8358 4 18.25 4ZM4 18.25C4 17.8358 4.33579 17.5 4.75 17.5H13.25C13.6642 17.5 14 17.8358 14 18.25C14 18.6642 13.6642 19 13.25 19H4.75C4.33579 19 4 18.6642 4 18.25ZM8.28033 7.21967C7.98744 6.92678 7.51256 6.92678 7.21967 7.21967C6.92678 7.51256 6.92678 7.98744 7.21967 8.28033L13.7197 14.7803C14.0126 15.0732 14.4874 15.0732 14.7803 14.7803C15.0732 14.4874 15.0732 14.0126 14.7803 13.7197L8.28033 7.21967Z" fill="#212121"/>
</svg>

<svg xmlns="http://www.w3.org/2000/svg" width="24" height="24"><path d="M18.25 4a.75.75 0 0 1 .75.75v8.5a.75.75 0 0 1-1.5 0v-8.5a.75.75 0 0 1 .75-.75ZM4 18.25a.75.75 0 0 1 .75-.75h8.5a.75.75 0 0 1 0 1.5h-8.5a.75.75 0 0 1-.75-.75ZM8.28 7.22a.75.75 0 0 0-1.06 1.06l6.5 6.5a.75.75 0 1 0 1.06-1.06l-6.5-6.5Z"/></svg>
